static/images/icons/eleventy.svg

<svg height="64" viewBox="0 0 64 64" width="64" xmlns="http://www.w3.org/2000/svg"><path d="m64 0v64h-64v-64zm-19.1782526 23.0601483-1.0958239.0059792c-.5164624.0074765-.8258936.2561957-.9655975.7508942-.1484722.5259743-.1522691 1.0598165-.0186716 1.5857908.8540379 3.3620551 1.7172355 6.7218006 2.5735437 10.0832685.8017419 3.1470777 1.6017615 6.2945859 2.3958704 9.4435817.2177957.863863.3507278 1.7354764.1808049 2.6306935-.1108551.5841811-.307748 1.1274961-.6373774 1.6240343-.1125774.1695706-.2512245.2355278-.4469431.1842104-.1636991-.0429407-.3279462-.0838459-.4914104-.1278826-.2450006-.0659572-.4881223-.1395865-.7345321-.1998679-.6939792-.1698055-1.1881297.1065884-1.4046337.7928563-.1874984.5942801-.2068354 1.2071144-.1355547 1.8192049.0279486.2402251.0896.4949333.2071878.70263.2691522.4755572.6970715.7802128 1.2068795.9739743.7103021.2699351 1.4503535.2997235 2.1958458.2734581.5605383-.0197285 1.0958288-.1592759 1.5944025-.4157456.9339694-.4804893 1.5455511-1.2585884 1.9826691-2.1906789.5319242-1.1342287.8392024-2.338603 1.0821284-3.5595743.409052-2.0561419.8010373-4.1156501 1.2000294-6.1737884l1.4642887-7.5552098c.5042104-2.601414 1.0091254-5.2027107 1.5121223-7.8043987.114926-.5945542.2386202-1.1859377.1339107-1.8010031-.1219719-.7164477-.4786495-1.0400489-1.2033566-1.0401664-.521825-.0000782-1.0438067-.0027792-1.5653186.0109211-.2743193.0071633-.5133309.1159438-.7191878.3086092-.3589089.3359315-.493759.7758679-.580893 1.232597-.185463.9722519-.3544464 1.9475963-.5315327 2.921414l-1.1581064 6.3612869c-.2088318 1.1463633-.4183682 2.29257-.6371817 3.4914642-.027518-.0953933-.0445455-.1442055-.0556232-.1943095-.8110581-3.6739523-1.6204722-7.3482569-2.4332526-11.021896-.1503511-.6796917-.280778-1.3664294-.480411-2.0319119-.2031168-.67703-.6350679-1.0750435-1.3383633-1.0769615-.7305786-.0020355-1.4612746-.0080636-2.1917358.0025052zm-8.7282155-9.9068268-.1652353.0013902c-.4686679.0219988-.9392538-.0005871-1.4088612.0053627-.6088024.0077113-.9898275.2659425-1.1608073.8526288-.1006777.3455217-.1474153.7141773-.1659303 1.0750825-.1216195 2.3708184-.2285602 4.7423805-.3413333 7.1136685-.0134654.2835964-.0330373.5669187-.0508086.8683254-.3872098 0-.7521859-.0086116-1.116614.0024661-.3513542.0106862-.659063.1453015-.8413554.4530104-.1169223.1972844-.2291082.4272929-.2441003.6493553-.0429015.6358116-.0535486 1.2754593-.0398483 1.9127976.0071241.3314299.1082324.6565969.3238361.9265712.2604232.3261456.6270434.3996967 1.0153492.4077211.2922471.0060282.5847291.0011743.9069211.0011743v.2839487c0 3.7184195-.0060281 7.4368.0041101 11.1551804.0026226.9578471.0312367 1.9172208.0928489 2.8729541.0647046 1.0039584.2601493 1.9892453.6191364 2.9337052.68983 1.8148208 2.0097957 2.808367 3.9443964 2.9447046.3831388.0270092.7676574.0354251 1.1525578.0376785l1.1548477.0007033c.3124061.0014665.6268477-.0031133.9369443-.0364638.5228037-.0561321.9019107-.4088954.9952294-.9299767.128548-.7178569.1152782-1.4453823.0271657-2.1631609-.0808318-.6582018-.5149358-1.0058373-1.1780306-1.0194984-.5542752-.01143-1.1088636-.0067719-1.6633345-.0075156-.707249-.0010178-.8588135-.1114031-1.1013089-.7792734-.318904-.8783854-.3871706-1.7934875-.3884624-2.7146961-.0059498-4.1228134-.0036403-8.245666-.0037969-12.3685186-.0000392-.0632954.0058715-.1265908.0095119-.2000245.0698324-.0036403.1271388-.0091988.1844453-.0092379.7567266-.0006654 1.5134923.0039927 2.2701798-.0019963.6984416-.0054802 1.1916917-.4164893 1.2509162-1.1140698.0544098-.6407437.0690104-1.2901382.0329199-1.9319388-.0409835-.729874-.4095217-1.3627498-1.4519193-1.3190263-.6902997.0289272-1.3827914.0054801-2.0742654.0054801h-.2221799l.0002055-4.0470067-.0019669-3.7868673c-.000274-.2604232-.0099034-.5225688-.0405529-.7808783-.0867425-.7313223-.4545762-1.338011-1.4260453-1.2923694zm-9.3784796 1.0565565c-.13074-.7709358-.6996942-1.1448367-1.4661676-.9710777-.3173382.0719462-.6315058.1582972-.9463388.2409688-1.4857003.3901064-2.9712049.7809957-4.4566312 1.1721199-.5871951.1546177-.933578.534625-1.0011401 1.1356379-.040592.3612183-.040866.7283474-.0388697 1.0926972.0029749.540575-.0070067 1.0840074.0448196 1.6208245.0732771.7591927.6872856 1.2709969 1.4985394 1.0212599.4094435-.1260036.8312563-.2118067 1.2736196-.3223486l-.0002397 20.3614141.008499 5.9299033c.0011744.3927682.0632172.7946178.1611156 1.1757994.1725456.6717456.5619083.9422501 1.2506814.9422501h2.2701798c.748389 0 1.1406092-.2688996 1.3119413-.9934501.1038874-.4393492.1576318-.9010495.1580232-1.3528073.0085725-10.0853823.0071242-20.1708037.0036013-30.2562251-.0000783-.2658642-.0271267-.5346251-.0716331-.7969663zm-12.579621-1.0040268-.1382633.0089305c-.333622.0353859-.6607461.1415046-.9879877.2265639-1.5116526.3929248-3.02279635.7877676-4.53311807 1.1858593-.72447217.1909823-1.07915351.6235988-1.10126972 1.3713224-.01945444.6582018-.01663609 1.3172256-.01362202 1.9758189.00097859.2075009.01777125.4180159.05597553.621759.13481101.7189138.71605627 1.1536832 1.46679389.931386.415863-.1231462.84112049-.2147034 1.29624469-.3290422l.000548 25.8857101c.0000391.2412819-.0146398.4856954.0180452.723063.0477162.3464611.095041.7008293.2093798 1.0285406.1934875.5545493.5480123.7722276 1.1350117.773167.782718.0012135 1.5654752.0006697 2.3481932.0003131.7166826-.0001565 1.1036575-.2572917 1.2752636-.9596477.1131254-.4629529.1671046-.9517798.1675352-1.4291376.0091596-10.0580991.0073982-20.1161981.0044624-30.1742972-.0001174-.272597-.021255-.5475817-.0605945-.8173603-.102948-.7058006-.5735731-1.0890177-1.2808612-1.0140183z" fill="#222" fill-rule="evenodd"/></svg>

<svg xmlns="http://www.w3.org/2000/svg" width="64" height="64" viewBox="0 0 64 64">
  <path fill="#222" fill-rule="evenodd" d="M64,0 L64,64 L0,64 L0,0 L64,0 Z M44.8217474,23.0601483 L43.7259235,23.0661275 C43.2094611,23.073604 42.9000299,23.3223232 42.760326,23.8170217 C42.6118538,24.342996 42.6080569,24.8768382 42.7416544,25.4028125 C43.5956923,28.7648676 44.4588899,32.1246131 45.3151981,35.486081 C46.11694,38.6331587 46.9169596,41.7806669 47.7110685,44.9296627 C47.9288642,45.7935257 48.0617963,46.6651391 47.8918734,47.5603562 C47.7810183,48.1445373 47.5841254,48.6878523 47.254496,49.1843905 C47.1419186,49.3539611 47.0032715,49.4199183 46.8075529,49.3686009 C46.6438538,49.3256602 46.4796067,49.284755 46.3161425,49.2407183 C46.0711419,49.1747611 45.8280202,49.1011318 45.5816104,49.0408504 C44.8876312,48.8710449 44.3934807,49.1474388 44.1769767,49.8337067 C43.9894783,50.4279868 43.9701413,51.0408211 44.041422,51.6529116 C44.0693706,51.8931367 44.131022,52.1478449 44.2486098,52.3555416 C44.517762,52.8310988 44.9456813,53.1357544 45.4554893,53.3295159 C46.1657914,53.599451 46.9058428,53.6292394 47.6513351,53.602974 C48.2118734,53.5832455 48.7471639,53.4436981 49.2457376,53.1872284 C50.179707,52.7067391 50.7912887,51.92864 51.2284067,50.9965495 C51.7603309,49.8623208 52.0676091,48.6579465 52.3105351,47.4369752 C52.7195871,45.3808333 53.1115724,43.3213251 53.5105645,41.2631868 L53.5105645,41.2631868 L54.9748532,33.707977 C55.4790636,31.106563 55.9839786,28.5052663 56.4869755,25.9035783 C56.6019015,25.3090241 56.7255957,24.7176406 56.6208862,24.1025752 C56.4989143,23.3861275 56.1422367,23.0625263 55.4175296,23.0624088 C54.8957046,23.0623306 54.3737229,23.0596296 53.852211,23.0733299 C53.5778917,23.0804932 53.3388801,23.1892737 53.1330232,23.3819391 C52.7741143,23.7178706 52.6392642,24.157807 52.5521302,24.6145361 C52.3666672,25.586788 52.1976838,26.5621324 52.0205975,27.5359501 L52.0205975,27.5359501 L50.8624911,33.897237 C50.6536593,35.0436003 50.4441229,36.189807 50.2253094,37.3887012 C50.1977914,37.2933079 50.1807639,37.2444957 50.1696862,37.1943917 C49.3586281,33.5204394 48.549214,29.8461348 47.7364336,26.1724957 C47.5860825,25.492804 47.4556556,24.8060663 47.2560226,24.1405838 C47.0529058,23.4635538 46.6209547,23.0655403 45.9176593,23.0636223 C45.1870807,23.0615868 44.4563847,23.0555587 43.7259235,23.0661275 Z M36.0935319,13.1533215 L35.9282966,13.1547117 C35.4596287,13.1767105 34.9890428,13.1541246 34.5194354,13.1600744 C33.910633,13.1677857 33.5296079,13.4260169 33.3586281,14.0127032 C33.2579504,14.3582249 33.2112128,14.7268805 33.1926978,15.0877857 C33.0710783,17.4586041 32.9641376,19.8301662 32.8513645,22.2014542 C32.8378991,22.4850506 32.8183272,22.7683729 32.8005559,23.0697796 C32.4133461,23.0697796 32.04837,23.061168 31.6839419,23.0722457 C31.3325877,23.0829319 31.0248789,23.2175472 30.8425865,23.5252561 C30.7256642,23.7225405 30.6134783,23.952549 30.5984862,24.1746114 C30.5555847,24.810423 30.5449376,25.4500707 30.5586379,26.087409 C30.565762,26.4188389 30.6668703,26.7440059 30.882474,27.0139802 C31.1428972,27.3401258 31.5095174,27.4136769 31.8978232,27.4217013 C32.1900703,27.4277295 32.4825523,27.4228756 32.8047443,27.4228756 L32.8047443,27.4228756 L32.8047443,27.7068243 C32.8047443,31.4252438 32.7987162,35.1436243 32.8088544,38.8620047 C32.811477,39.8198518 32.8400911,40.7792255 32.9017033,41.7349588 C32.9664079,42.7389172 33.1618526,43.7242041 33.5208397,44.668664 C34.2106697,46.4834848 35.5306354,47.477031 37.4652361,47.6133686 C37.8483749,47.6403778 38.2328935,47.6487937 38.6177939,47.6510471 L39.7726416,47.6517504 C40.0850477,47.6532169 40.3994893,47.6486371 40.7095859,47.6152866 C41.2323896,47.5591545 41.6114966,47.2063912 41.7048153,46.6853099 C41.8333633,45.967453 41.8200935,45.2399276 41.731981,44.522149 C41.6511492,43.8639472 41.2170452,43.5163117 40.5539504,43.5026506 C39.9996752,43.4912206 39.4450868,43.4958787 38.8906159,43.495135 C38.1833669,43.4941172 38.0318024,43.3837319 37.789307,42.7158616 C37.470403,41.8374762 37.4021364,40.9223741 37.4008446,40.0011655 C37.3948948,35.8783521 37.3972043,31.7554995 37.3970477,27.6326469 C37.3970085,27.5693515 37.4029192,27.5060561 37.4065596,27.4326224 C37.476392,27.4289821 37.5336984,27.4234236 37.5910049,27.4233845 C38.3477315,27.4227191 39.1044972,27.4273772 39.8611847,27.4213882 C40.5596263,27.415908 41.0528764,27.0048989 41.1121009,26.3073184 C41.1665107,25.6665747 41.1811113,25.0171802 41.1450208,24.3753796 C41.1040373,23.6455056 40.7354991,23.0126298 39.6931015,23.0563533 C39.0028018,23.0852805 38.3103101,23.0618334 37.6188361,23.0618334 L37.6188361,23.0618334 L37.3966562,23.0618334 L37.3968617,19.0148267 L37.3948948,15.2279594 C37.3946208,14.9675362 37.3849914,14.7053906 37.3543419,14.4470811 C37.2675994,13.7157588 36.8997657,13.1090701 35.9282966,13.1547117 Z M26.7150523,14.209878 C26.5843123,13.4389422 26.0153581,13.0650413 25.2488847,13.2388003 C24.9315465,13.3107465 24.6173789,13.3970975 24.3025459,13.4797691 C22.8168456,13.8698755 21.331341,14.2607648 19.8459147,14.651889 C19.2587196,14.8065067 18.9123367,15.186514 18.8447746,15.7875269 C18.8041826,16.1487452 18.8039086,16.5158743 18.8059049,16.8802241 C18.8088798,17.4207991 18.7988982,17.9642315 18.8507245,18.5010486 C18.9240016,19.2602413 19.5380101,19.7720455 20.3492639,19.5223085 C20.7587074,19.3963049 21.1805202,19.3105018 21.6228835,19.1999599 L21.6228835,19.1999599 L21.6226438,39.561374 L21.6311428,45.4912773 C21.6323172,45.8840455 21.69436,46.2858951 21.7922584,46.6670767 C21.964804,47.3388223 22.3541667,47.6093268 23.0429398,47.6093268 L23.0429398,47.6093268 L25.3131196,47.6093268 C26.0615086,47.6093268 26.4537288,47.3404272 26.6250609,46.6158767 C26.7289483,46.1765275 26.7826927,45.7148272 26.7830841,45.2630694 C26.7916566,35.1776871 26.7902083,25.0922657 26.7866854,15.0068443 C26.7866071,14.7409801 26.7595587,14.4722192 26.7150523,14.209878 Z M14.1354313,13.2058512 L13.997168,13.2147817 C13.663546,13.2501676 13.3364219,13.3562863 13.0091803,13.4413456 C11.4975277,13.8342704 9.98638395,14.2291132 8.47606223,14.6272049 C7.75159006,14.8181872 7.39690872,15.2508037 7.37479251,15.9985273 C7.35533807,16.6567291 7.35815642,17.3157529 7.36117049,17.9743462 C7.36214908,18.1818471 7.37894174,18.3923621 7.41714602,18.5961052 C7.55195703,19.315019 8.13320229,19.7497884 8.88393991,19.5274912 C9.29980291,19.404345 9.7250604,19.3127878 10.1801846,19.198449 L10.1801846,19.198449 L10.1807326,45.0841591 C10.1807717,45.325441 10.1660928,45.5698545 10.1987778,45.8072221 C10.246494,46.1536832 10.2938188,46.5080514 10.4081576,46.8357627 C10.6016451,47.390312 10.9561699,47.6079903 11.5431693,47.6089297 C12.3258873,47.6101432 13.1086445,47.6095994 13.8913625,47.6092428 C14.6080451,47.6090863 14.99502,47.3519511 15.1666261,46.6495951 C15.2797515,46.1866422 15.3337307,45.6978153 15.3341613,45.2204575 C15.3433209,35.1623584 15.3415595,25.1042594 15.3386237,15.0461603 C15.3385063,14.7735633 15.3173687,14.4985786 15.2780292,14.2288 C15.1750812,13.5229994 14.7044561,13.1397823 13.997168,13.2147817 Z"/>
</svg>
